X: 3154
T: LENNOX LOVE TO BLANTYRE
Q: "Reel."
R: Reel.
%R: reel
B: James Kerr "Merry Melodies" v.3 p.18 #154
Z: 2016 John Chambers <jc:trillian.mit.edu>
M: C
L: 1/8
K: F
uA |\
F2(FG) AGFA | G/G/G (Bc) dcde |\
fgfd cAFA | BGAF D/D/D D :|\
f |\
cdfg agfa | gfga gfdf |
cdfg agfa | gfba (g2f)d |\
cdfg agfa | gfga gfdf |\
cfaf gfaf | gfba (g2f) |]

%%sep 1 1 500
%%sep 1 1 500

